packages/core/src/svgs/tokens/mono/OBOT.svg

<svg width="24" height="24" viewBox="0 0 24 24" fill="none" xmlns="http://www.w3.org/2000/svg">
<path fill-rule="evenodd" clip-rule="evenodd" d="M2 2H9.99995V5.33335H14.0001V2H22V9.99995H18.6667V14.0001H22V22H14.0001V18.6667H9.99995V22H2V14.0001H5.33335V9.99995H2V2ZM6.66668 9.99995V14.0001H9.99995V17.3333H14.0001V14.0001H17.3333V9.99995H14.0001V6.66668H9.99995V9.99995H6.66668ZM4 4H8.00001V8.00001H4V4ZM4 16.0001H8.00001V20H4V16.0001ZM20 4H16.0001V8.00001H20V4ZM16.0001 16.0001H20V20H16.0001V16.0001Z" fill="white"/>
</svg>

<svg xmlns="http://www.w3.org/2000/svg" width="24" height="24" fill="none" viewBox="0 0 24 24">
    <path fill="#fff" fill-rule="evenodd" d="M2 2h8v3.333h4V2h8v8h-3.333v4H22v8h-8v-3.333h-4V22H2v-8h3.333v-4H2zm4.667 8v4H10v3.333h4V14h3.333v-4H14V6.667h-4V10zM4 4h4v4H4zm0 12h4v4H4zM20 4h-4v4h4zm-4 12h4v4h-4z" clip-rule="evenodd"/>
</svg>
